X:1
T:Felix Mendelssohn Bartholdy
T:ZWEI GEISTLICHE CHOERE für vier Männerstimmen Op. 115 I Beati mortui
%%score [ 1 2 3 4 ]
L:1/8
Q:1/4=84
M:4/4
K:C
V:1 treble-8 nm="Soprano"
V:2 treble-8 nm="Alto"
V:3 bass nm="Tenor"
V:4 bass nm="Bass"
V:1
"^Andante sostenuto"!p! e2 | e4 d4 | f3 f e2 c2 | c2 cc d2 e2 | d4 G2 G2 | A4 A4 | G3 G G2 z2 | %7
w: Be-|a- ti|mor- tu- i in|Do- mi- no mo- ri-|en- tes, be-|a- ti|mor- tu- i|
 z4!mf! z2"^cresc." d2 | e4 e2 e2 |"^A"!f! e2 ee d2 e2 | f4 e2 d2 | e8 | e4 z2!p!"^SOLO" A2 | %13
w: be-|a- ti in|Do- mi- no mo- ri-|en- tes de-|in-|ceps, be-|
!<(!!>(! d8!<)!!>)! | d4!pp! z2"^TUTTI" c2 | B8 | A4 z4 | z8 | z4!f! c3 c | f2 c2 d3 d | %20
w: a-|ti, be-|a-|ti!||Di- cit|e- nim spi- ri-|
 c2!p! c2 c2 c2 | _B4 A4 | G2 G2 _B2 AG | G8 | A4"^B"!f! A3 _B | c2 A2 d3 e | e2 e2 e2 e2 | f4 e4 | %28
w: tus, ut re- qui-|es- cant|a la- bo- ri- bus|su-|is, di- cit|e- nim spi- ri-|tus, ut re- qui-|es- cant|
 d2 d2 f2 ed | e4 e2!p! c2 | d3 d d2 d2 | d4 d4 | z2"^cresc." e2 e2 e2 | f4 f4 | z2!f! ^f2 f2 f2 | %35
w: a la- bo- ri- bus|su- is, et|o- pe- ra il-|lo- rum|se quun- tur|ip- sos,|se quun- tur|
 g8 | !fermata!G6!p!"^C""^SOLO" e2 | e4 d4 | f3 f e2 c2 | c2 cc d2 e2 | d4 G2"^TUTTI"!<(! e2!<)! | %41
w: ip-|sos! Be-|a- ti|mor- tu- i in|Do- mi- no mo- ri-|en- tes, be-|
 e4 g4 |!>(! g3 f f2 e2!>)! | d8 | e4"^D" z4 | z4 z2"^SOLO" d2 | g2 f2 e2 d2 | (c4 d2) e2 | %48
w: a- ti|mor- tu- i, be-|a-|ti,|be-|a- ti mor- tu-|i _ de-|
 (d6 e2) | e4 z4 | z4 z2"^TUTTI" d2 | g2 f2 e4- | e3 e f2 d2 |!p! (d8 | c8) |!pp! !fermata!c8 |] %56
w: in _|ceps,|be-|a- ti mor|_ tu- i de|in|_|ceps!|
V:2
!p! c2 | c4 B4 | c3 c c2 G2 | A2 GG AB c2 | c4 B2 z2 | z8 | z4!mf! z2"^cresc." d2 | d4 d4 | %8
w: Be-|a- ti|mor- tu- i in|Do- mi- no mo _ ri-|en- tes,||be-|a- ti|
 d3 d c2 B2 |!f! c2 cc d2 c2 | B4 c2 d2 | c4 B4 | c4 z2!p!"^SOLO" A2 |!<(!!>(! A8!<)!!>)! | %14
w: mor- tu- i in|Do- mi- no mo- ri-|en- tes de-|in _|ceps, be-|a-|
 ^G4!pp! z2"^TUTTI" A2 | (A4 ^G4) | A4 z4 | z8 | z4!f! A3 _B | c2 A2 F2 G2 | A2!p! A2 A2 A2 | %21
w: ti, be-|a _|ti!||Di- cit|e- nim spi- ri-|tus, ut re- qui-|
 G4 F4 | F2 F2 F2 FF | (F4 E4) | F4!f! A3 _B | c2 A2 d3 ^c | ^c2 c2 c2 c2 | d4 =B4 | d2 d2 d2 =cB | %29
w: es- cant|a la- bo- ri- bus|su _|is, di- cit|e- nim spi- ri-|tus, ut re- qui-|es- cant|a la- bo- ri- bus|
 B4 c2!p! A2 | A3 A A2 A2 | A4 A4 | z2"^cresc." _B2 B2 B2 | c4 c4 | z2!f! d2 d2 d2 | (e4 d2) c2 | %36
w: su- is, et|o- pe- ra il-|lo- rum|se quun- tur|ip- sos,|se quun- tur|ip _ _|
 !fermata!d6!p!"^SOLO" c2 | c4 B4 | c2 d2 e2 c2 | c2 cc B2 c2 | c4 B2"^TUTTI"!<(! c2!<)! | c4 c4 | %42
w: sos! Be-|a- ti|mor- tu- i in|Do- mi- no mo- ri-|en- tes, be-|a- ti|
!>(! c3 c c2 c2!>)! | (c4 B4) | c4 z2"^SOLO" c2 | f2 e2 d2 c2 | B6 ^G2 | A4 c2 c2 | (c4 B4) | %49
w: mor- tu- i, be-|a _|ti, be-|a- ti mor- tu-|i, be-|a- ti de-|in _|
 c4 z2"^TUTTI" c2 | f2 e2 d2 c2 | B6 d2 | c4 c2 c2 |!p! (c4 B4) | c4!pp! A4 | A4 !fermata!G4 |] %56
w: ceps, be-|a- ti mor- tu-|i, be-|a- ti, be-|a _|ti, be-|a- ti!|
V:3
!p! G,2 | G,4 G,4 | A,3 A, G,2 E,2 | F,2 E,E, F,2 G,2 | G,4 G,2 z2 | z4!mf! z2"^cresc." C2 | %6
w: Be-|a- ti|mor- tu- i in|Do- mi- no mo- ri-|en- tes,|be-|
 C4 C4 | C3 B, B,2 A,2 | ^G,4 G,2 G,2 |!f! A,2 A,A, A,2 A,2 | A,4 A,2 A,2 | (A,4 ^G,4) | %12
w: a- ti|mor- tu- i, be-|a- ti in|Do- mi- no mo- ri-|en- tes de-|in _|
 A,4 z2!p!"^SOLO" A,2 |!<(!!>(! F,8!<)!!>)! | E,4!pp! z2"^TUTTI" E,2 | E,8 | A,,4!f! A,3 _B, | %17
w: ceps, be-|a-|ti, be-|a-|ti! Di- cit|
 C2 A,2 F,2 G,2 | A,4 F,3 G, | A,2 F,2 _B,3 B, | F,2!p! F,2 F,2 F,2 | D,2 E,2 F,4 | %22
w: e- nim spi- ri-|tus. Di- cit|e- nim spi- ri-|tus, ut re- qui-|es _ cant|
 _B,,2 B,,2 D,2 C,B,, | C,8 | F,,4!f! A,3 _B, | C2 A,2 F,3 E, | E,2 A,2 A,2 A,2 | A,4 ^G,4 | %28
w: a la- bo- ri- bus|su-|is, di- cit|e- nim spi- ri-|tus, ut re- qui-|es- cant|
 A,2 A,2 A,2 A,A, | ^G,4 A,2 z2 | z4 z2!p! C2 | C3 C C2 C2 |"^cresc." C4 C4 | z2!f! C2 C2 C2 | %34
w: a la- bo- ri- bus|su- is,|et|o- pe- ra il-|lo- rum|se quun- tur|
 C4 C4 | (C4 B,2) A,2 | !fermata!B,6!p!"^SOLO" G,2 | G,4 G,4 | A,2 B,2 C2 G,2 | A,2 G,G, G,2 G,2 | %40
w: ip- sos,|ip _ _|sos! Be-|a- ti|mor- tu- i in|Do- mi- no mo- ri-|
 G,4 G,2"^TUTTI"!<(! G,2!<)! | G,4 _B,4 |!>(! _B,3 A, A,2 A,2!>)! | (A,4 G,2) F,2 | %44
w: en- tes, be-|a- ti|mor- tu- i, be-|a _ _|
 E,2"^SOLO" G,2 C2 =B,2 | A,2 G,2 F,4- | F,2 A,2 ^G,2 B,2 | A,3 A, A,2 A,2 | (A,4 G,4) | %49
w: ti, be- a- ti|mor- tu- i,|_ be- a- ti|mor- tu- i de-|in _|
 G,2"^TUTTI" G,2 C2 B,2 | A,2 G,2 F,4- | F,2 A,2 ^G,2 G,2 | A,3 A, A,2 A,2 |!p! G,8 | G,4!pp! F,4 | %55
w: ceps, be- a- ti|mor- tu- i,|_ be- a- ti|mor- tu- i de|in|ceps, be-|
 F,4 !fermata!E,4 |] %56
w: a- ti!|
V:4
!p! C,2 | C,4 G,,4 | F,,3 F,, C,2 E,2 | F,2 E,E, D,2 C,2 | G,4 G,,2"^cresc." G,2 | G,4 F,4 | %6
w: Be-|a- ti|mor- tu- i in|Do- mi- no mo- ri-|en- tes, be|a- ti|
w: ||||(in) * *||
 F,3 E, E,2 D,2 |!mf! (G,6 F,2) | E,6 E,2 |!f! A,2 G,F, F,2 E,2 | D,4 E,2 F,2 | E,8 | %12
w: mor- tu- i, be-|a _|ti in|Do- mi- no mo- ri-|en- tes de-|in-|
w: ||||(in) * *||
 A,,4 z2!p!"^SOLO" A,,2 |!<(!!>(! D,8!<)!!>)! | E,4!pp! z2"^TUTTI" A,,2 | [E,,E,]8 | %16
w: ceps, be-|a-|ti, be-|a-|
w: ||||
 A,,4!f! A,3 _B, | C2 A,2 F,2 G,2 | A,4 F,3 G, | A,2 F,2 _B,,3 B,, | F,2!p! F,2 F,2 F,,2 | %21
w: ti! Di- cit|e- nim spi- ri-|tus. Di- cit|e- nim spi- ri-|tus, ut re- qui-|
w: |||||
 G,,4 A,,4 | _B,,2 B,,2 D,2 C,B,, | C,8 | F,,4!f! A,3 _B, | C2 A,2 D,3 A,, | A,,8 | D,4 E,4 | %28
w: es- cant|a la- bo- ri- bus|su-|is, di- cit|e- nim spi- ri-|tus,|a la|
w: |||||||
 (F,4 D,2) E,F, | E,4 A,,2!p! A,2 | F,3 F, F,2 F,2 | F,4 F,4 | z2"^cresc." G,2 G,2 G,2 | A,4 A,4 | %34
w: bo _ ri- bus|su- is, et|o- pe- ra il-|lo- rum|se quun- tur|ip- sos,|
w: ||||||
 z2!f! D,2 D,2 D,2 | G,8 | !fermata!G,,6!p!"^SOLO" C,2 | C,8- | C,4 C,2 E,2 | F,2 E,E, D,2 C,2 | %40
w: se quun- tur|ip-|sos! Be-|a|_ ti in|Do- mi- no mo- ri-|
w: ||||||
 G,4 G,,2"^TUTTI"!<(! C,2!<)! | C,4 C,4 |!>(! F,3 F, F,2 F,,2!>)! | G,,8 | C,4"^SOLO" C,4- | %45
w: en- tes, be-|a- ti|mor- tu- i, be-|a-|ti, be|
w: |||||
 C,4 D,4- | D,4 E,2 E,2 | (A,2 =G,2) F,2 E,2 | (F,4 G,4) | C,4"^TUTTI" C,4- | C,4 D,4- | D,4 E,4 | %52
w: _ a|_ ti, be-|a _ ti de-|in _|ceps, be|_ a|_ ti|
w: |||||||
 A,3 A, F,2 F,2 |!p! (G,8 | C,8) |!pp! !fermata!C,8 |] %56
w: mor- tu- i de|in|_|ceps!|
w: ||||

